X:1
T:Lawson, 87.87 D
T:Lawson, 87.87 D
T:James Lawson Elginburg, 1871
T:Public Domain Courtesy of the Cyber Hymnal™
C:James Lawson Elginburg, 1871
Z:Public Domain
Z:Courtesy of the Cyber Hymnal™
%%score ( 1 2 ) ( 3 4 )
L:1/8
Q:1/4=100
M:3/4
K:Ab
V:1 treble 
V:2 treble 
V:3 bass 
V:4 bass 
V:1
 EE | [Ec]3 [Ec] [EB][=EB] | [FA] [FA]3 [DF][DF] | [FA]3 [FA] [DF][DF] | [CE]4 E[DE] | %5
 c3 [_Ec] [EB][=EB] | F [DF]3 [FA][DF] | [CE]3 [CE] [DG][DG] | [CA]4 [EG][EA] | [GB]3 [GB] A[GB] | %10
 [Ac] [Ac]3 [GB][Ac] | [Ad]3 [Ac] [Ac]A | [GB]4 E[DE] | c3 [_Ec] [EB][=EB] | F [DF]3 [FA][DF] | %15
 [CE]3 [CE] [CG][DG] | [CA]4 |] %17
V:2
 EE | x6 | x6 | x6 | x4 E x | C =E2 x3 | F x5 | x6 | x6 | x4 A x | x6 | x5 A | x4 E x | C =E2 x3 | %14
 F x5 | x6 | x4 |] %17
V:3
 E,E, | [A,,A,]3 [A,,B,,A,] [B,,G,][B,,G,] | [D,D] [D,D]3 [D,A,][D,A,] | %3
 [D,D]3 [D,D] [D,A,][D,A,] | [A,,A,]4 [E,G,][E,G,] | [A,,A,]3 [A,,A,] [B,,G,][C,G,] | %6
 [D,D] [D,A,]3 [D,F,][D,A,] | [E,A,]3 [E,A,] [E,B,][E,B,] | [A,,A,]4 [E,B,][E,C] | %9
 [E,E]3 [E,E] [C,E][E,E] | [A,E] [A,E]3 [E,E][E,E] | [D,F]3 [D,F] [A,E][A,=DE] | %12
 [E,E]4 [E,G,][E,G,] | [A,,A,]3 [A,,A,] [B,,G,][C,G,] | [D,D] [D,A,]3 [D,F,][D,A,] | %15
 [E,A,]3 [E,A,] [E,B,][E,B,] | [A,,A,]4 |] %17
V:4
 E,E, | x6 | x6 | x6 | x6 | x6 | x6 | x6 | x6 | x6 | x6 | x6 | x6 | x6 | x6 | x6 | x4 |] %17

